raw/symbols/nexo.svg

<svg width="42" height="42" viewBox="0 0 42 42" fill="none" xmlns="http://www.w3.org/2000/svg">
<circle cx="21" cy="21" r="20" fill="#1A4199"/>
<path opacity="0.7" d="M14.266 9.15873L27.9943 17.0811V25.1619L7 13.0407L13.7284 9.15873C13.8109 9.11416 13.9033 9.09082 13.9972 9.09082C14.091 9.09082 14.1834 9.11416 14.266 9.15873Z" fill="#F3F3F3"/>
<path opacity="0.85" d="M27.9946 9L20.9946 13.0404L27.9946 17.0808V9Z" fill="#F3F3F3"/>
<path d="M27.9946 9L34.7287 12.882C34.8096 12.9312 34.877 13.0001 34.9244 13.0821C34.9719 13.1642 34.998 13.2569 35.0003 13.3516V29.1964L27.9946 25.1616V9Z" fill="#F3F3F3"/>
<path opacity="0.85" d="M34.9945 29.2019L28.2661 33.0839C28.1801 33.1335 28.0825 33.1597 27.9832 33.1597C27.8838 33.1597 27.7863 33.1335 27.7002 33.0839L13.9775 25.1615V17.0693L34.9945 29.2019Z" fill="#F3F3F3"/>
<path opacity="0.55" d="M7.00001 13.04V28.8848C6.99944 28.9825 7.02416 29.0786 7.07176 29.1639C7.11935 29.2492 7.18821 29.3207 7.27163 29.3715L14 33.2534V17.0691L7.00001 13.04Z" fill="#F3F3F3"/>
<path opacity="0.7" d="M14 33.242L20.9943 29.2015L14 25.1611V33.242Z" fill="#F3F3F3"/>
</svg>

<svg xmlns="http://www.w3.org/2000/svg" width="42" height="42" fill="none"><circle cx="21" cy="21" r="20" fill="#1A4199"/><path fill="#F3F3F3" d="m14.266 9.159 13.728 7.922v8.08L7 13.042l6.728-3.882a.566.566 0 0 1 .538 0Z" opacity=".7"/><path fill="#F3F3F3" d="m27.995 9-7 4.04 7 4.04V9Z" opacity=".85"/><path fill="#F3F3F3" d="m27.995 9 6.734 3.882a.566.566 0 0 1 .271.47v15.844l-7.005-4.034V9Z"/><path fill="#F3F3F3" d="m34.995 29.202-6.729 3.882a.566.566 0 0 1-.566 0L13.977 25.16V17.07l21.018 12.133Z" opacity=".85"/><path fill="#F3F3F3" d="M7 13.04v15.845a.566.566 0 0 0 .272.486L14 33.254V17.07L7 13.04Z" opacity=".55"/><path fill="#F3F3F3" d="m14 33.242 6.994-4.04L14 25.162v8.08Z" opacity=".7"/></svg>
